build/assets/images/simplify.svg

<svg width="133" height="87" viewBox="0 0 133 87" fill="none" xmlns="http://www.w3.org/2000/svg">
<path d="M117.831 74.0219C114.228 71.0006 110.045 56.7075 106.327 44.0413C105.746 42.0658 105.164 40.0903 104.583 38.1149H117.831V46.8302L132.472 36.2556L117.831 25.6811V33.3505H103.189C97.7275 15.6875 91.6849 0 83.202 0C74.9515 0 70.0709 15.4551 65.4228 33.3505H24.7514C24.7514 33.2343 24.7514 33.2343 24.6352 33.1181C19.406 16.8496 15.3389 3.95093 10.3421 1.51065C9.76112 1.27824 9.18011 1.16204 8.48288 1.16204C7.90186 1.16204 7.32084 1.62685 6.97223 2.32408C6.62362 3.0213 6.62362 3.83473 6.85603 4.53195L6.97223 4.76436C7.32084 5.46158 7.90186 5.9264 8.59909 5.9264C8.71529 5.9264 8.83149 5.9264 9.0639 6.0426C12.3176 7.66946 16.7334 21.1491 20.6843 33.4667H1.85926C0.813427 33.4667 0 34.5126 0 35.7908C0 37.069 0.813427 38.1149 1.85926 38.1149H22.1949C28.7024 58.5668 36.1394 80.5293 46.4815 82.2723C46.8302 82.3885 47.295 82.3885 47.6436 82.3885C56.9399 82.3885 61.9367 62.7501 67.1658 41.9496C67.5145 40.6714 67.8631 39.3931 68.0955 38.1149H100.516C101.33 40.6714 102.027 43.2278 102.724 45.5519C108.534 65.1904 112.369 77.2756 117.715 79.0186V86.9205L132.356 76.3459L117.715 65.7714V74.0219H117.831ZM63.5635 40.5552C59.0316 58.4506 53.9186 78.7862 46.9464 77.6242C39.0445 76.2297 31.9561 56.2427 26.1459 38.1149H64.1445C64.0283 38.9283 63.7959 39.7417 63.5635 40.5552ZM69.3737 33.4667C73.2084 18.5926 77.7404 4.76436 83.202 4.76436C89.0122 4.76436 94.4737 18.7088 99.1219 33.4667H69.3737Z" fill="url(#paint0_linear)"/>
<defs>
<linearGradient id="paint0_linear" x1="66.2362" y1="0" x2="66.2362" y2="86.9205" gradientUnits="userSpaceOnUse">
<stop stop-color="#F16122"/>
<stop offset="1" stop-color="#FEBD33"/>
</linearGradient>
</defs>
</svg>

<svg width="133" height="87" fill="none" xmlns="http://www.w3.org/2000/svg"><path d="M117.831 74.022c-3.603-3.021-7.786-17.315-11.504-29.98l-1.744-5.927h13.248v8.715l14.641-10.574-14.641-10.575v7.67h-14.642C97.728 15.687 91.685 0 83.202 0c-8.25 0-13.131 15.455-17.78 33.35h-40.67c0-.116 0-.116-.117-.232C19.406 16.85 15.34 3.951 10.342 1.511a4.817 4.817 0 00-1.86-.349c-.58 0-1.161.465-1.51 1.162-.348.697-.348 1.51-.116 2.208l.116.232c.349.698.93 1.162 1.627 1.162.116 0 .232 0 .465.117 3.254 1.626 7.67 15.106 11.62 27.424H1.86C.813 33.467 0 34.513 0 35.79c0 1.278.813 2.324 1.86 2.324h20.335c6.507 20.452 13.944 42.414 24.286 44.157.35.116.814.116 1.163.116 9.296 0 14.293-19.638 19.522-40.438.349-1.279.697-2.557.93-3.835h32.42c.814 2.556 1.511 5.113 2.208 7.437 5.81 19.638 9.645 31.724 14.991 33.467v7.901l14.641-10.574-14.641-10.575v8.25h.116zM63.563 40.555c-4.531 17.896-9.644 38.231-16.617 37.07-7.901-1.395-14.99-21.382-20.8-39.51h37.998c-.116.813-.348 1.627-.58 2.44zm5.81-7.088c3.836-14.874 8.367-28.703 13.83-28.703 5.81 0 11.272 13.945 15.92 28.703H69.374z" fill="url(#paint0_linear)"/><defs><linearGradient id="paint0_linear" x1="66.236" y1="0" x2="66.236" y2="86.921" gradientUnits="userSpaceOnUse"><stop stop-color="#F16122"/><stop offset="1" stop-color="#FEBD33"/></linearGradient></defs></svg>
